X:27
T:Brown Paper Hornpipe. JBu.27
O:England,South Yorkshire
S:Joshua Burnett’s MS,c1835,S.Yorkshire
M:C|
L:1/8
Q:1/2=80
R:.hornpipe
Z:vmp.R.Greig.2011
K:D
A2|dcde fdAF|GFGA BGEC|DFAd Bged|c2A2A2Bc|
dcde fdAF|GFGA BGEC|DFAd Bgec|d2d2d2:|
|:cd|eAcA eAgA|fAdA fAaA|efgf (3efd (3cdB|AcdB (3ABG (3FGE|
Ddc/d/e geAF|GFGA BGEC|DFAd Bgec|d2d2d2:|

